img/chrome-web-store.svg

<svg viewBox="0 0 108 100" xmlns="http://www.w3.org/2000/svg"><g fill="none" fill-rule="evenodd"><path d="m108 94c0 3.315-2.687 6-6 6h-96c-3.313 0-6-2.685-6-6v-36h108v36" fill="#eeefef"/><path d="m78 8.08l-8.06-8.08v16.17h-31.875v-16.17l-8.06 8.08v8.08h-30v41.834h108v-41.834h-30v-8.08" fill="#e5e6e7"/><path d="m38.06.04h31.875v7.944h-31.875v-7.944" fill="#acadad"/><path d="m71.3 100c1.705-2.944 2.697-6.353 2.697-10 0-11.05-8.954-20-20-20-11.05 0-20 8.954-20 20 0 3.647.992 7.06 2.697 10h34.606" fill="#fff"/><path d="m36.665 100h.032c-1.705-2.944-2.697-6.353-2.697-10 0-11.05 8.954-20 20-20 .006 0 .013.001.02.001h41.41c-2.15-4.447-4.999-8.492-8.398-12h-66.07c-1.909 1.97-3.638 4.114-5.173 6.398l20.867 35.602" fill="#e14c40"/><path d="m87.03 57.998c-8.361-8.627-20.06-13.998-33.03-13.998-12.963 0-24.666 5.371-33.03 13.998h66.05" fill="#d6473d"/><path d="m95.42 70h-41.4c11.04.011 19.98 8.96 19.98 19.999 0 3.647-.992 7.06-2.697 10h27.594c.714-3.221 1.103-6.564 1.103-10 0-7.171-1.651-13.951-4.581-19.999" fill="#ffd24d"/><path d="m36.665 100l-20.867-35.602c-4.919 7.319-7.798 16.12-7.798 25.602 0 3.436.389 6.779 1.103 10h27.562" fill="#0daa61"/><path d="m66.48 100c2.198-2.74 3.52-6.214 3.52-10 0-8.837-7.163-16-16-16-8.837 0-16 7.163-16 16 0 3.786 1.322 7.26 3.521 10h24.959" fill="#4388fd"/></g></svg>

<?xml version="1.0" encoding="UTF-8" standalone="no"?>
<svg width="108px" height="100px" viewBox="0 0 108 100" version="1.1" xmlns="http://www.w3.org/2000/svg" xmlns:xlink="http://www.w3.org/1999/xlink" xmlns:sketch="http://www.bohemiancoding.com/sketch/ns">
    <!-- Generator: Sketch 3.0.4 (8053) - http://www.bohemiancoding.com/sketch -->
    <title>chrome-web-store</title>
    <desc>Created with Sketch.</desc>
    <defs></defs>
    <g id="Page-1" stroke="none" stroke-width="1" fill="none" fill-rule="evenodd" sketch:type="MSPage">
        <g id="chrome-web-store" sketch:type="MSArtboardGroup">
            <path d="M108,94 C108,97.315 105.313,100 102,100 L6,100 C2.687,100 0,97.315 0,94 L0,57.998 L108,57.998 L108,94" id="Fill-1" fill="#EEEFEF" sketch:type="MSShapeGroup"></path>
            <path d="M78,8.083 L69.938,0 L69.938,16.166 L38.063,16.166 L38.063,0 L30,8.083 L30,16.166 L0,16.166 L0,58 L108,58 L108,16.166 L78,16.166 L78,8.083 Z" id="Fill-2" fill="#E5E6E7" sketch:type="MSShapeGroup"></path>
            <path d="M38.063,0.04 L69.938,0.04 L69.938,7.984 L38.063,7.984 L38.063,0.04 Z" id="Fill-3" fill="#ACADAD" sketch:type="MSShapeGroup"></path>
            <path d="M71.303,100 C73.008,97.056 74,93.647 74,90 C74,78.954 65.046,70 54,70 C42.954,70 34,78.954 34,90 C34,93.647 34.992,97.056 36.697,100 L71.303,100" id="Fill-4" fill="#FFFFFF" sketch:type="MSShapeGroup"></path>
            <path d="M36.665,100 L36.697,100 C34.992,97.056 34,93.647 34,90 C34,78.954 42.954,70 54,70 C54.006,70 54.013,70.001 54.02,70.001 L95.435,70.001 C93.285,65.554 90.436,61.509 87.037,58 L20.971,58 C19.062,59.97 17.333,62.114 15.798,64.398 L36.665,100" id="Fill-5" fill="#E14C40" sketch:type="MSShapeGroup"></path>
            <path d="M87.027,57.998 C78.666,49.371 66.963,44 54,44 C41.037,44 29.334,49.371 20.973,57.998 L87.027,57.998" id="Fill-6" fill="#D6473D" sketch:type="MSShapeGroup"></path>
            <path d="M95.419,70.001 L54.02,70.001 C65.056,70.012 74,78.961 74,90 C74,93.647 73.008,97.056 71.303,100 L98.897,100 C99.611,96.779 100,93.436 100,90 C100,82.829 98.349,76.049 95.419,70.001" id="Fill-7" fill="#FFD24D" sketch:type="MSShapeGroup"></path>
            <path d="M36.665,100 L15.798,64.398 C10.879,71.717 8,80.519 8,90 C8,93.436 8.389,96.779 9.103,100 L36.665,100" id="Fill-8" fill="#0DAA61" sketch:type="MSShapeGroup"></path>
            <path d="M66.48,100 C68.678,97.26 70,93.786 70,90 C70,81.163 62.837,74 54,74 C45.163,74 38,81.163 38,90 C38,93.786 39.322,97.26 41.521,100 L66.48,100" id="Fill-9" fill="#4388FD" sketch:type="MSShapeGroup"></path>
        </g>
    </g>
</svg>
